X:1
T:Title
%%score ( 1 2 ) { 3 | 4 }
L:1/8
Q:1/4=110
M:4/4
K:G
V:1 treble nm="Grand Piano, Soprano"
V:2 treble 
V:3 treble nm="Choir Pad, Glens Falls, 76.76 D"
V:4 bass 
V:1
 [DG]2 [GB]2- [GB][FA] G2 | [Ge]2 [Gd]4 [GB]2 | z4 z2 .d2 | .B2 z2 z4 | [DG]2 [GB]2- [GB][FA] G2 | %5
w: By~Adam~Geibel,~1900 * * * *|||||
 [Ge]2 [Gd]4 [GB]2 | [DG]2 [GB]2- [GB][EA] [DG]2 | [DF]2 [DG]6 | [=FG]2 [EG]2- [EG][Ec] [Ec]2 | %9
w: ||||
 [Ge]2 [Ge]2 [Gd]2 z2 | [GB]2 [FA]2- [FA][FA] [GA]2 | .B2 z2 z4 | [Fc]2 [GB]2- [GB][FA] G2 | %13
w: ||||
 [=Fd]2 [Ee]4 [Ec]2 | z4 z2 .F2 | AB G6- | G2 z2 z4 |] %17
w: ||||
V:2
 x8 | x8 | [DG]2 [GB]2- [GB][GB]A-[Ac] | G-[Gc] [GB]4 [FA]2 | x8 | x8 | x8 | x8 | x8 | x8 | x8 | %11
 G-[G^c] [Fd]6 | x8 | x8 | [EA]2 [DG]2- [DG][DG]D-[DG] | F2 z2 z4 | x8 |] %17
V:3
 B,2 D2- DC B,2 | C2 B,4 D2 | B,2 D2- DD D2 | D2 D6 | B,2 D2- DC[K:bass] B,2 | C2 B,4 D2 | %6
 B,2[K:treble] D2- DC B,2 | A,C[K:bass] B,6 | B,2 C2- CG, G,2 | C2 C2 B,2 z2 | D2 D2- DD ^C2 | %11
 DE D6 | D2 D2- DC[K:bass] B,2 | B,2 C4 A,2 | C2 B,2- B,B,A,B, | CD B,6- | B,2 z2 z4 |] %17
V:4
 G,2 G,2- G,G, G,2 | G,2 G,4 G,2 | G,2 G,2- G,G, F,2 | G,2 D,6 | G,2 G,2- G,G, G,2 | G,2 G,4 G,2 | %6
 G,2 B,,2- B,,B,, D,2 | D,2 G,,6 | G,2 C,2- C,C, C,2 | C,2 G,2 G,2 z2 | G,2 A,2- A,A, A,2 | %11
 A,2 D,6 | D,2 G,2- G,G, G,2 | G,2 C,4 C,2 | C,2 D,2- D,D, D,2 | D,2 G,6- | G,2 z2 z4 |] %17

